Catalina-light/actions/16/composition.svg

<svg xmlns="http://www.w3.org/2000/svg" viewBox="0 0 16 16">
  <defs id="defs3051">
    <style type="text/css" id="current-color-scheme">
      .ColorScheme-Text {
        color:#363636;
      }
      </style>
  </defs>
 <path style="fill:currentColor;fill-opacity:1;stroke:none" 
     d="M 7 2 L 7 6.6660156 L 4.5 10 L 7.5 14 L 10.5 10 L 8 6.6660156 L 8 2 L 7 2 z M 7.5 7.6679688 L 9.25 10 L 7.5 12.332031 L 5.75 10 L 7.5 7.6679688 z "
     class="ColorScheme-Text"
     />
</svg>

<svg viewBox="0 0 16 16" xmlns="http://www.w3.org/2000/svg">
<defs>
<style id="current-color-scheme" type="text/css">.ColorScheme-Text {
        color:#363636;
      }</style>
</defs>
<path class="ColorScheme-Text" d="m7 2v4.666l-2.5 3.334 3 4 3-4-2.5-3.334v-4.666h-1zm0.5 5.668 1.75 2.332-1.75 2.332-1.75-2.332 1.75-2.332z" fill="currentColor"/>
</svg>
